X:182
T:Mr. Sherrif's Whim
M:C
L:1/8
B:Thompson's Compleat Collection of 200 Favourite Country Dances, vol. 3 (London, 1773)
Z:Transcribed and edited by Flynn Titford-Mock, 2007
Z:abc's:AK/Fiddler's Companion
K:F
FF/F/ F>G Acfa | b b2 g f2 ec | dbca B3B | A/B/c BA G4 :|
|: GG/G/ GA Bc d2 | Accf afcA | Begb aBAG | {B}AG/F/ {A}G F/E/ F4 :|

